X:153
T:In the Toyshop
M:4/4
L:1/8
Q:1/8=150
K:G
B2 c2 d2 d2|g>fg>e d4|B3 c d2 d2|e>^dez =d4|
d d2  A2 A3|d d2 A2 A2 B|c2 c2 B2 A2|G4 B2 c2 d2 d2|
g>fg>e d4|B3 c d2 d2|e>^dez =d4|
d d2  A2 A3|d d2 A2 A2 B|c2 c2 B2 A2|G4:|||
B2 d2|e>^dez  e>^dez|e>^dez e2|d>d d2 d>c B>c|
d4 B2 d2|e>^dez  e>^dez|e>^dez e2|d>d d2 e2 e2|
f4 B2 c2 d2 d2|g>fg>e d4|B3 c d2 d2|e>^dez =d4|
d d2  A2 A3|d d2 A2 A2 B|c2 c2 B2 A2|G4:||
